ui/StatusQ/src/assets/img/icons/hash.svg

<svg fill="none" height="24" viewBox="0 0 24 24" width="24" xmlns="http://www.w3.org/2000/svg"><path clip-rule="evenodd" d="m10.9901 5.14143c.0781-.54674-.3018-1.05327-.8486-1.13137-.54669-.07811-1.05322.30179-1.13132.84852l-.36782 2.57476c-.04645.32515-.32492.56666-.65337.56666h-1.98899c-.55228 0-1 .44772-1 1s.44772 1 1 1h1.5147c.40165 0 .71017.3557.65337.7533l-.38286 2.68c-.04645.3252-.32491.5667-.65336.5667h-1.63185c-.55228 0-1 .4477-1 1s.44772 1 1 1h1.15756c.40164 0 .71017.3557.65337.7533l-.30075 2.1053c-.07811.5467.30179 1.0532.84853 1.1314.54673.0781 1.05326-.3018 1.13137-.8486l.36782-2.5747c.04645-.3252.32492-.5667.6534-.5667h2.6463c.4016 0 .7101.3557.6533.7533l-.3007 2.1053c-.0781.5467.3018 1.0532.8485 1.1314.5467.0781 1.0533-.3018 1.1314-.8486l.3678-2.5747c.0465-.3252.3249-.5667.6534-.5667h1.9887c.5523 0 1-.4477 1-1s-.4477-1-1-1h-1.5144c-.4017 0-.7102-.3557-.6534-.7533l.3828-2.68c.0465-.3252.325-.5667.6534-.5667h1.6316c.5523 0 1-.44772 1-1s-.4477-1-1-1h-1.1573c-.4016 0-.7102-.35573-.6534-.75334l.3008-2.10523c.0781-.54674-.3018-1.05327-.8486-1.13137-.5467-.07811-1.0532.30179-1.1313.84852l-.3678 2.57476c-.0465.32515-.325.56666-.6534.56666h-2.6463c-.4016 0-.7102-.35573-.6534-.75334zm3.178 5.61187c.0568-.3976-.2518-.7533-.6534-.7533h-2.6463c-.3284 0-.6069.2415-.6534.5667l-.38281 2.68c-.0568.3976.25171.7533.65341.7533h2.6462c.3285 0 .607-.2415.6534-.5667z" fill="#939ba1" fill-rule="evenodd"/></svg>

<svg width="24" height="24" viewBox="0 0 24 24" fill="none" xmlns="http://www.w3.org/2000/svg">
<path fill-rule="evenodd" clip-rule="evenodd" d="M10.9901 5.14143C11.0682 4.59469 10.6883 4.08816 10.1415 4.01006C9.59481 3.93195 9.08828 4.31185 9.01018 4.85858L8.64236 7.43334C8.59591 7.75849 8.31744 8 7.98899 8H6C5.44772 8 5 8.44772 5 9C5 9.55228 5.44772 10 6 10H7.5147C7.91635 10 8.22487 10.3557 8.16807 10.7533L7.78521 13.4333C7.73876 13.7585 7.4603 14 7.13185 14H5.5C4.94772 14 4.5 14.4477 4.5 15C4.5 15.5523 4.94772 16 5.5 16H6.65756C7.0592 16 7.36773 16.3557 7.31093 16.7533L7.01018 18.8586C6.93207 19.4053 7.31197 19.9118 7.85871 19.99C8.40544 20.0681 8.91197 19.6882 8.99008 19.1414L9.3579 16.5667C9.40435 16.2415 9.68282 16 10.0113 16H12.6576C13.0592 16 13.3677 16.3557 13.3109 16.7533L13.0102 18.8586C12.9321 19.4053 13.312 19.9118 13.8587 19.99C14.4054 20.0681 14.912 19.6882 14.9901 19.1414L15.3579 16.5667C15.4044 16.2415 15.6828 16 16.0113 16H18C18.5523 16 19 15.5523 19 15C19 14.4477 18.5523 14 18 14H16.4856C16.0839 14 15.7754 13.6443 15.8322 13.2467L16.215 10.5667C16.2615 10.2415 16.54 10 16.8684 10H18.5C19.0523 10 19.5 9.55228 19.5 9C19.5 8.44772 19.0523 8 18.5 8H17.3427C16.9411 8 16.6325 7.64427 16.6893 7.24666L16.9901 5.14143C17.0682 4.59469 16.6883 4.08816 16.1415 4.01006C15.5948 3.93195 15.0883 4.31185 15.0102 4.85858L14.6424 7.43334C14.5959 7.75849 14.3174 8 13.989 8H11.3427C10.9411 8 10.6325 7.64427 10.6893 7.24666L10.9901 5.14143ZM14.1681 10.7533C14.2249 10.3557 13.9163 10 13.5147 10H10.8684C10.54 10 10.2615 10.2415 10.215 10.5667L9.83219 13.2467C9.77539 13.6443 10.0839 14 10.4856 14H13.1318C13.4603 14 13.7388 13.7585 13.7852 13.4333L14.1681 10.7533Z" fill="#939BA1"/>
</svg>
